X: 1
T: The Otter's Holt
R: reel
M: 4/4
L: 1/8
K: Bmin
e|:fBBA FEFB|(3ABA FB ABde|fBBA FEFA|
|(3Bcd cA Bcde|fBBA FEFB|(3ABA FB ABde|
|faaf effe|1 dBBA ~B3e:|2 dBAF B3c||
|:d2 fd Adfa|bfaf effe|(3ddd fd Adfa|
bfaf egfe|defd Adfa|bfaf efde|
fBBA FEFA|1 (3Bcd cA B3c:|2 (3Bcd cA ~B3e||
"Burke's Variation B Part"
|:~d3f a2 fa|(3baf af effe|d2 fd adfa|
bfaf effe|dcdf a2 fa|(3baf af effe|
fBBA FEFA|1 (3Bcd cA B3c:|2 (3Bcd cA ~B3e||


Tune 636	Setting 27922

